X:1
T: Drive the Cows Home
C:
R:Jig
Q:180
K:G
M:6/8
L:1/16
d2|e2f2e2 e2d2B2|d2B2A2 A4B2|G2A2G2 G2B2d2|B2A2G2 G4g2|f2e2d2 e2f2g2|a2g2a2 e4f2|g2f2g2 d2B2d2|e2c2A2 A4d2|
e2f2e2 e2d2B2|d2B2A2 A4B2|G2A2G2 G2B2d2|B2A2G2 G4g2|f2e2d2 e2f2g2|a2g2a2 e4f2|g2f2g2 d2B2d2|e2c2A2 A4e2|
a2g2a2 e2f2g2|a2g2a2 e4f2|g2f2g2 d2e2f2|g2f2g2 d4e2|a2g2a2 e2f2g2|a2g2a2 e4f2|g2f2g2 d2B2d2|e2c2A2 A4e2|
a2g2a2 e2f2g2|a2g2a2 e4f2|g2f2g2 d2e2f2|g2f2g2 d4e2|a2g2f2 g2f2e2|f2e2d2 e2d2B2|g2f2g2 d2B2d2|e2c2A2 A4||
